X:8
T:RIDEE 6 TEMPS N 2
Z: Yves BELOTTEAU
M:4/4
L:1/4
Q:1/4=150
K:G
|ABcA d3/2 z/2 cB|AGAc B3/2 z/2 GG|ABcA d3/2 z/2 cB|AGAF G7/2 z/2 |
ABcA d3/2 z/2 cB|AGAc B3/2 z/2 GG|ABcA d3/2 z/2 cB|AGAF G7/2 z/2 |
dded cBA3/2 z/2 |dded cBA3/2 z/2 |dded cBA3/2 z/2 |dded cBA3/2 z/2 |
G3/2|
